styles/2/Numix/96/places/brown-user-home.svg

<?xml version="1.0" encoding="UTF-8" standalone="no"?>
<svg
   xmlns:dc="http://purl.org/dc/elements/1.1/"
   xmlns:cc="http://creativecommons.org/ns#"
   xmlns:rdf="http://www.w3.org/1999/02/22-rdf-syntax-ns#"
   xmlns:svg="http://www.w3.org/2000/svg"
   xmlns="http://www.w3.org/2000/svg"
   xmlns:sodipodi="http://sodipodi.sourceforge.net/DTD/sodipodi-0.dtd"
   xmlns:inkscape="http://www.inkscape.org/namespaces/inkscape"
   width="96"
   viewBox="0 0 96 96"
   height="96"
   id="svg2999"
   version="1.1"
   inkscape:version="0.91 r"
   sodipodi:docname="brown-user-home.svg">
  <metadata
     id="metadata3017">
    <rdf:RDF>
      <cc:Work
         rdf:about="">
        <dc:format>image/svg+xml</dc:format>
        <dc:type
           rdf:resource="http://purl.org/dc/dcmitype/StillImage" />
      </cc:Work>
    </rdf:RDF>
  </metadata>
  <defs
     id="defs3015" />
  <sodipodi:namedview
     pagecolor="#ffffff"
     bordercolor="#666666"
     borderopacity="1"
     objecttolerance="10"
     gridtolerance="10"
     guidetolerance="10"
     inkscape:pageopacity="0"
     inkscape:pageshadow="2"
     inkscape:window-width="1366"
     inkscape:window-height="747"
     id="namedview3013"
     showgrid="true"
     inkscape:zoom="6.9532167"
     inkscape:cx="12.257569"
     inkscape:cy="53.416576"
     inkscape:window-x="0"
     inkscape:window-y="21"
     inkscape:window-maximized="1"
     inkscape:current-layer="svg2999">
    <inkscape:grid
       type="xygrid"
       id="grid2997"
       empspacing="5"
       visible="true"
       enabled="true"
       snapvisiblegridlinesonly="true" />
  </sodipodi:namedview>
  <path
     style="font-size:medium;font-style:normal;font-variant:normal;font-weight:normal;font-stretch:normal;text-indent:0;text-align:start;text-decoration:none;line-height:normal;letter-spacing:normal;word-spacing:normal;text-transform:none;direction:ltr;block-progression:tb;writing-mode:lr-tb;text-anchor:start;baseline-shift:baseline;color:#000000;fill:#8d6e63;fill-opacity:1;fill-rule:nonzero;stroke:none;stroke-width:1;marker:none;visibility:visible;display:inline;overflow:visible;enable-background:accumulate;font-family:Sans;-inkscape-font-specification:Sans"
     d="m 12.000041,12.000037 c -1.999999,0 -3.999998,1.999998 -3.999998,3.999997 l 0,3.999998 -1.999999,0 c -1.999999,0 -4.0111358,1.898413 -3.999998,3.999998 l 0,55.999972 C 2.000302,82.241469 4.075571,83.9998 6.3750438,84 L 89.625002,84 C 92.000001,84 94,82.000001 94,80.000002 l 0,-49.999975 c 0,-1.999999 -1.999999,-3.999998 -3.999998,-3.999998 l -3.999998,0 0,-9.999995 c 0,-1.999999 -1.999999,-3.999997 -3.999998,-3.999997 z"
     id="path3770"
     inkscape:connector-curvature="0"
     sodipodi:nodetypes="sscsccccccccsss" />
  <path
     inkscape:connector-curvature="0"
     style="font-size:medium;font-style:normal;font-variant:normal;font-weight:normal;font-stretch:normal;text-indent:0;text-align:start;text-decoration:none;line-height:normal;letter-spacing:normal;word-spacing:normal;text-transform:none;direction:ltr;block-progression:tb;writing-mode:lr-tb;text-anchor:start;baseline-shift:baseline;color:#000000;fill:#000000;fill-opacity:0.32156863;fill-rule:nonzero;stroke:none;stroke-width:1;marker:none;visibility:visible;display:inline;overflow:visible;enable-background:accumulate;font-family:Sans;-inkscape-font-specification:Sans"
     d="m 12.000041,12.000037 c -1.999999,0 -3.999998,1.999998 -3.999998,3.999997 l 0,3.999998 -1.999999,0 c -1.999999,0 -4.0111358,1.898413 -3.999998,3.999998 l 0,55.999972 C 2.000302,82.241469 4.075571,83.9998 6.3750438,84 L 89.625002,84 C 92.000001,84 94,82.000001 94,80.000002 l 0,-49.999975 c 0,-1.999999 -1.999999,-3.999998 -3.999998,-3.999998 l -3.999998,0 0,-9.999995 c 0,-1.999999 -1.999999,-3.999997 -3.999998,-3.999997 l -69.999965,0 z m -5.999997,9.999994 47.999976,0 c 1.014627,0 1.999999,0.988334 1.999999,1.999999 l 0,3.999998 33.999983,0 c 1.081715,0 1.999999,0.943618 1.999999,1.999999 l 0,49.999975 c 0,1.107509 -0.90423,1.999999 -1.999999,1.999999 l -83.999958,0 c -1.0254515,0 -1.999999,-0.892492 -1.999999,-1.999999 l 0,-55.999972 c 0,-1.086635 0.9580835,-1.999999 1.999999,-1.999999 z"
     id="path3779" />
  <path
     style="fill:#000000;fill-opacity:0.32156864"
     d="M 48 40.5 C 47.5 40.5 47 41 46 42 L 36 52 C 31.593223 55.999998 30.000003 56 36 56 L 36 68 C 36 70.215999 37.784001 72 40 72 L 44 72 L 44 60 L 52 60 L 52 72 L 56 72 C 58.215999 72 60 70.215999 60 68 L 60 56 C 65.999997 56 64.57627 55.999998 60 52 L 60 44 C 60 42.892001 59.999999 42 58 42 C 56.000001 42 56 42.892001 56 44 L 56 48 L 50 42 C 49 41 48.5 40.5 48 40.5 z "
     id="rect2989" />
</svg>

<svg xmlns="http://www.w3.org/2000/svg" viewBox="0 0 96 96">
 <path d="m 12 12 c -2 0 -4 2 -4 4 l 0 4 -2 0 c -2 0 -4.01 1.898 -4 4 l 0 56 c 0 2.241 2.076 4 4.375 4 l 83.25 0 c 2.375 0 4.375 -2 4.375 -4 l 0 -50 c 0 -2 -2 -4 -4 -4 l -4 0 0 -10 c 0 -2 -2 -4 -4 -4 z" style="visibility:visible;fill:#8d6e63;fill-opacity:1;stroke:none;display:inline;color:#000;fill-rule:nonzero"/>
 <path d="m 12 12 c -2 0 -4 2 -4 4 l 0 4 -2 0 c -2 0 -4.01 1.898 -4 4 l 0 56 c 0 2.241 2.076 4 4.375 4 l 83.25 0 c 2.375 0 4.375 -2 4.375 -4 l 0 -50 c 0 -2 -2 -4 -4 -4 l -4 0 0 -10 c 0 -2 -2 -4 -4 -4 l -70 0 z m -6 10 48 0 c 1.015 0 2 0.988 2 2 l 0 4 34 0 c 1.082 0 2 0.944 2 2 l 0 50 c 0 1.108 -0.904 2 -2 2 l -84 0 c -1.025 0 -2 -0.892 -2 -2 l 0 -56 c 0 -1.087 0.958 -2 2 -2 z" style="visibility:visible;fill:#000;fill-opacity:0.322;stroke:none;display:inline;color:#000;fill-rule:nonzero"/>
 <path d="m 48 40.5 c -0.5 0 -1 0.5 -2 1.5 l -10 10 c -4.407 4 -6 4 0 4 l 0 12 c 0 2.216 1.784 4 4 4 l 4 0 l 0 -12 l 8 0 l 0 12 l 4 0 c 2.216 0 4 -1.784 4 -4 l 0 -12 c 6 0 4.576 0 0 -4 l 0 -8 c 0 -1.108 0 -2 -2 -2 c -2 0 -2 0.892 -2 2 l 0 4 l -6 -6 c -1 -1 -1.5 -1.5 -2 -1.5 z" style="fill:#000;fill-opacity:0.322"/>
</svg>
